Yaru++/mimetypes/48/text-x-maven+xml.svg

<svg height="48" viewBox="0 0 12.7 12.7" width="48" xmlns="http://www.w3.org/2000/svg" xmlns:xlink="http://www.w3.org/1999/xlink"><linearGradient id="a" gradientUnits="userSpaceOnUse" x1="344" x2="344" y1="62" y2="106"><stop offset="0" stop-color="#fff"/><stop offset=".125" stop-color="#fff" stop-opacity=".098039"/><stop offset=".92500001" stop-color="#fff" stop-opacity=".098039"/><stop offset="1" stop-color="#fff" stop-opacity=".498039"/></linearGradient><clipPath id="b"><path d="m335.73108 62c-8.82418 0-9.77365.90635-9.7304 9.74838v12.25162 12.25162c-.0433 8.84203.90622 9.74838 9.7304 9.74838h16.53919c8.82418 0 9.7304-.90625 9.7304-9.74838v-12.25162-12.25162c0-8.84213-.90622-9.74838-9.7304-9.74838z"/></clipPath><linearGradient id="c" gradientUnits="userSpaceOnUse" x1="200.980282" x2="199.768902" xlink:href="#d" y1="123.826885" y2="184.142975"/><linearGradient id="d"><stop offset="0" stop-color="#f69923"/><stop offset=".33127922" stop-color="#cc2235"/><stop offset=".66221952" stop-color="#b02050"/><stop offset="1" stop-color="#7c28d7"/></linearGradient><linearGradient id="e" gradientUnits="userSpaceOnUse" x1="242.320832" x2="240.831182" y1="107.094045" y2="194.796015"><stop offset="0" stop-color="#f69923"/><stop offset=".50197756" stop-color="#cc2235"/><stop offset=".67756468" stop-color="#b02050"/><stop offset="1" stop-color="#7c28d7"/></linearGradient><linearGradient id="f" gradientUnits="userSpaceOnUse" x1="284.825172" x2="283.978812" xlink:href="#d" y1="125.625545" y2="181.099225"/><linearGradient id="g" gradientTransform="matrix(0 -.02997233 .02997147 0 -3.039658 13.626036)" gradientUnits="userSpaceOnUse" x1="459.03448" x2="35.310345" y1="419.23337" y2="207.36522"><stop offset="0" stop-color="#f2f2f2"/><stop offset="1" stop-color="#f9f9f9"/></linearGradient><path d="m4.1624033.39686938c-.5882111 0-1.0513696.0135414-1.4324701.0775147-.3811032.063972-.692957.18396453-.9213929.411861-.2284333.22789672-.3490013.53961012-.412377.92087402-.063376.3812644-.075747.845434-.072864 1.4350545v3.2401124 3.2416626c-.00286.5887144.00955 1.0526494.072864 1.4335034.063376.381265.1839437.692978.412377.920875.2284359.227896.5402897.34789.9213929.411861.3811032.06397.844259.07752 1.4324701.07752h4.3759596c.5882111 0 1.0511261-.01352 1.4314385-.07752.3803116-.064.6912126-.184399.9188046-.412377.227595-.227978.347451-.53947.411345-.920359.06389-.380886.07752-.844114.07752-1.4335034v-3.2416626-3.2416626c0-.5893895-.01363-1.0526162-.07752-1.4335043-.06389-.3808877-.18375-.6923782-.411345-.92035727-.227592-.22797876-.538493-.34837793-.9188046-.41237773-.3803124-.0640001-.8432274-.0775147-1.4314385-.0775147z" opacity=".1"/><path d="m4.1625647.39686938c-2.334731 0-2.5859449.23980511-2.5745017 2.57925882v3.2415745 3.2415744c-.011456 2.3394539.2397707 2.5792589 2.5745017 2.5792589h4.375994c2.3347303 0 2.5745013-.239779 2.5745013-2.5792589v-3.2415744-3.2415745c0-2.33948017-.239771-2.57925882-2.5745013-2.57925882z" fill="none" opacity=".2" stroke="#000" stroke-width=".529167"/><path d="m4.1625647.39686938c-2.334731 0-2.5859449.23980511-2.5745017 2.57925882v3.2415745 3.2415744c-.011456 2.3394539.2397707 2.5792589 2.5745017 2.5792589h4.375994c2.3347303 0 2.5745013-.239779 2.5745013-2.5792589v-3.2415744-3.2415745c0-2.33948017-.239771-2.57925882-2.5745013-2.57925882z" fill="url(#g)"/><g enable-background="new" transform="matrix(.04964895 0 0 .04964895 -5.607196 -1.285173)"><path d="m186.19721 151.11847 32.29065 13.2801-2.36495 7.00389-39.29453-16.6456v-7.27677l39.29453-16.6456 2.36495 7.00389z" fill="url(#c)"/><path d="m229.80806 195.1429h-8.64116l30.83529-88.04885h8.45924z" fill="url(#e)"/><path d="m263.1689 137.83838 2.36495-7.00389 39.29453 16.6456v7.27677l-39.29453 16.6456-2.36495-7.00389 32.29064-13.2801-12.88352-5.29857z" fill="url(#f)"/></g><path d="m1.5878831 6.2177027v3.2416625c-.011456 2.3394528.2397892 2.5791708 2.5745202 2.5791708h4.3759596c2.3347311 0 2.5745201-.239691 2.5745201-2.5791708v-3.2416625z" fill="#fff" opacity=".2"/><path d="m6.3503831.39686938v11.64166662h2.1879798c2.3347311 0 2.5745201-.239691 2.5745201-2.5791708v-3.2416625-3.2416626c0-2.33948018-.239789-2.57917072-2.5745201-2.57917072z" fill="#fff" opacity=".1"/><path clip-path="url(#b)" d="m335.73108 62c-8.82418 0-9.77365.90635-9.7304 9.74838v12.25162 12.25162c-.0433 8.84203.90622 9.74838 9.7304 9.74838h16.53919c8.82418 0 9.7304-.90625 9.7304-9.74838v-12.25162-12.25162c0-8.84213-.90622-9.74838-9.7304-9.74838z" fill="none" opacity=".4" stroke="url(#a)" stroke-width="2" transform="matrix(.26458333 0 0 .26458333 -84.666283 -16.007297)"/></svg>

<?xml version="1.0" encoding="UTF-8" standalone="no"?>
<svg
   xmlns:dc="http://purl.org/dc/elements/1.1/"
   xmlns:cc="http://creativecommons.org/ns#"
   xmlns:rdf="http://www.w3.org/1999/02/22-rdf-syntax-ns#"
   xmlns:svg="http://www.w3.org/2000/svg"
   xmlns="http://www.w3.org/2000/svg"
   xmlns:xlink="http://www.w3.org/1999/xlink"
   xmlns:sodipodi="http://sodipodi.sourceforge.net/DTD/sodipodi-0.dtd"
   xmlns:inkscape="http://www.inkscape.org/namespaces/inkscape"
   height="48"
   viewBox="0 0 12.7 12.7"
   width="48"
   version="1.1"
   id="svg35"
   sodipodi:docname="text-x-maven+xml48.svg"
   inkscape:version="0.92.5 (2060ec1f9f, 2020-04-08)">
  <metadata
     id="metadata41">
    <rdf:RDF>
      <cc:Work
         rdf:about="">
        <dc:format>image/svg+xml</dc:format>
        <dc:type
           rdf:resource="http://purl.org/dc/dcmitype/StillImage" />
        <dc:title></dc:title>
      </cc:Work>
    </rdf:RDF>
  </metadata>
  <defs
     id="defs39">
    <linearGradient
       inkscape:collect="always"
       xlink:href="#linearGradient927"
       id="linearGradient1004"
       x1="344"
       y1="62"
       x2="344"
       y2="106"
       gradientUnits="userSpaceOnUse" />
    <linearGradient
       inkscape:collect="always"
       id="linearGradient927">
      <stop
         style="stop-color:#ffffff;stop-opacity:1;"
         offset="0"
         id="stop923" />
      <stop
         id="stop933"
         offset="0.125"
         style="stop-color:#ffffff;stop-opacity:0.09803922" />
      <stop
         id="stop931"
         offset="0.92500001"
         style="stop-color:#ffffff;stop-opacity:0.09803922" />
      <stop
         style="stop-color:#ffffff;stop-opacity:0.49803922"
         offset="1"
         id="stop925" />
    </linearGradient>
    <clipPath
       clipPathUnits="userSpaceOnUse"
       id="clipPath994">
      <path
         style="color:#000000;display:inline;overflow:visible;visibility:visible;fill:#cdcdcd;fill-opacity:1;fill-rule:nonzero;stroke:none;stroke-width:2;stroke-miterlimit:4;stroke-dasharray:none;stroke-opacity:1;marker:none;enable-background:accumulate"
         d="m 335.73108,62 c -8.82418,0 -9.77365,0.90635 -9.7304,9.74838 V 84 96.25162 c -0.0433,8.84203 0.90622,9.74838 9.7304,9.74838 h 16.53919 c 8.82418,0 9.7304,-0.90625 9.7304,-9.74838 V 84 71.74838 C 362.00067,62.90625 361.09445,62 352.27027,62 Z"
         id="path996"
         inkscape:connector-curvature="0"
         sodipodi:nodetypes="scccssscsss" />
    </clipPath>
    <linearGradient
       inkscape:collect="always"
       xlink:href="#linearGradient2380"
       id="linearGradient2734"
       gradientUnits="userSpaceOnUse"
       gradientTransform="translate(88.831182,-4.8815347)"
       x1="112.1491"
       y1="128.70842"
       x2="110.93772"
       y2="189.02451" />
    <linearGradient
       inkscape:collect="always"
       id="linearGradient2380">
      <stop
         style="stop-color:#f69923;stop-opacity:1"
         offset="0"
         id="stop2376" />
      <stop
         id="stop2384"
         offset="0.33127922"
         style="stop-color:#cc2235;stop-opacity:1" />
      <stop
         style="stop-color:#b02050;stop-opacity:1"
         offset="0.66221952"
         id="stop2386" />
      <stop
         style="stop-color:#7c28d7;stop-opacity:1"
         offset="1"
         id="stop2378" />
    </linearGradient>
    <linearGradient
       inkscape:collect="always"
       xlink:href="#linearGradient2404"
       id="linearGradient2736"
       gradientUnits="userSpaceOnUse"
       gradientTransform="translate(88.831182,-4.8815347)"
       x1="153.48965"
       y1="111.97558"
       x2="152"
       y2="199.67755" />
    <linearGradient
       id="linearGradient2404"
       inkscape:collect="always">
      <stop
         id="stop2396"
         offset="0"
         style="stop-color:#f69923;stop-opacity:1" />
      <stop
         style="stop-color:#cc2235;stop-opacity:1"
         offset="0.50197756"
         id="stop2398" />
      <stop
         id="stop2400"
         offset="0.67756468"
         style="stop-color:#b02050;stop-opacity:1" />
      <stop
         id="stop2402"
         offset="1"
         style="stop-color:#7c28d7;stop-opacity:1" />
    </linearGradient>
    <linearGradient
       inkscape:collect="always"
       xlink:href="#linearGradient2380"
       id="linearGradient2738"
       gradientUnits="userSpaceOnUse"
       gradientTransform="translate(88.831182,-4.8815347)"
       x1="195.99399"
       y1="130.50708"
       x2="195.14763"
       y2="185.98076" />
    <linearGradient
       inkscape:collect="always"
       xlink:href="#linearGradient4338"
       id="linearGradient1024"
       gradientUnits="userSpaceOnUse"
       gradientTransform="matrix(0,-0.02997233,0.02997147,0,-3.0396582,13.626036)"
       x1="459.03448"
       y1="419.23337"
       x2="35.310345"
       y2="207.36522" />
    <linearGradient
       inkscape:collect="always"
       id="linearGradient4338">
      <stop
         style="stop-color:#f2f2f2;stop-opacity:1"
         offset="0"
         id="stop4340" />
      <stop
         style="stop-color:#f9f9f9;stop-opacity:1"
         offset="1"
         id="stop4342" />
    </linearGradient>
  </defs>
  <sodipodi:namedview
     pagecolor="#ffffff"
     bordercolor="#666666"
     borderopacity="1"
     objecttolerance="10"
     gridtolerance="10"
     guidetolerance="10"
     inkscape:pageopacity="0"
     inkscape:pageshadow="2"
     inkscape:window-width="1920"
     inkscape:window-height="1016"
     id="namedview37"
     showgrid="false"
     inkscape:zoom="4.9166667"
     inkscape:cx="24"
     inkscape:cy="24"
     inkscape:window-x="0"
     inkscape:window-y="27"
     inkscape:window-maximized="1"
     inkscape:current-layer="svg35" />
  <linearGradient
     id="a"
     gradientUnits="userSpaceOnUse"
     x1="344"
     x2="344"
     y1="62"
     y2="106">
    <stop
       offset="0"
       stop-color="#fff"
       id="stop2" />
    <stop
       offset=".125"
       stop-color="#fff"
       stop-opacity=".098039"
       id="stop4" />
    <stop
       offset=".92500001"
       stop-color="#fff"
       stop-opacity=".098039"
       id="stop6" />
    <stop
       offset="1"
       stop-color="#fff"
       stop-opacity=".498039"
       id="stop8" />
  </linearGradient>
  <clipPath
     id="b">
    <path
       d="m335.73108 62c-8.82418 0-9.77365.90635-9.7304 9.74838v12.25162 12.25162c-.0433 8.84203.90622 9.74838 9.7304 9.74838h16.53919c8.82418 0 9.7304-.90625 9.7304-9.74838v-12.25162-12.25162c0-8.84213-.90622-9.74838-9.7304-9.74838z"
       id="path11" />
  </clipPath>
  <linearGradient
     id="c"
     gradientTransform="matrix(0 -.02997233 .02997147 0 -3.039659 297.92607)"
     gradientUnits="userSpaceOnUse"
     x1="459.03448"
     x2="35.310345"
     y1="419.23337"
     y2="207.36522">
    <stop
       offset="0"
       stop-color="#f2f2f2"
       id="stop14" />
    <stop
       offset="1"
       stop-color="#f9f9f9"
       id="stop16" />
  </linearGradient>
  <path
     style="color:#000000;font-style:normal;font-variant:normal;font-weight:normal;font-stretch:normal;font-size:medium;line-height:normal;font-family:sans-serif;font-variant-ligatures:normal;font-variant-position:normal;font-variant-caps:normal;font-variant-numeric:normal;font-variant-alternates:normal;font-feature-settings:normal;text-indent:0;text-align:start;text-decoration:none;text-decoration-line:none;text-decoration-style:solid;text-decoration-color:#000000;letter-spacing:normal;word-spacing:normal;text-transform:none;writing-mode:lr-tb;direction:ltr;text-orientation:mixed;dominant-baseline:auto;baseline-shift:baseline;text-anchor:start;white-space:normal;shape-padding:0;clip-rule:nonzero;display:inline;overflow:visible;visibility:visible;opacity:0.1;isolation:auto;mix-blend-mode:normal;color-interpolation:sRGB;color-interpolation-filters:linearRGB;solid-color:#000000;solid-opacity:1;vector-effect:none;fill:#000000;fill-opacity:1;fill-rule:nonzero;stroke:none;stroke-width:0.52916664;stroke-linecap:butt;stroke-linejoin:miter;stroke-miterlimit:4;stroke-dasharray:none;stroke-dashoffset:0;stroke-opacity:1;marker:none;color-rendering:auto;image-rendering:auto;shape-rendering:auto;text-rendering:auto;enable-background:accumulate"
     d="m 4.1624033,0.39686938 c -0.5882111,0 -1.0513696,0.0135414 -1.4324701,0.0775147 C 2.34883,0.53835608 2.0369762,0.65834861 1.8085403,0.88624508 1.580107,1.1141418 1.459539,1.4258552 1.3961633,1.8071191 1.3327873,2.1883835 1.3204163,2.6525531 1.3232993,3.2421736 V 6.482286 9.7239486 c -0.00286,0.5887144 0.00955,1.0526494 0.072864,1.4335034 0.063376,0.381265 0.1839437,0.692978 0.412377,0.920875 0.2284359,0.227896 0.5402897,0.34789 0.9213929,0.411861 0.3811032,0.06397 0.844259,0.07752 1.4324701,0.07752 h 4.3759596 c 0.5882111,0 1.0511261,-0.01352 1.4314385,-0.07752 0.3803116,-0.064 0.6912126,-0.184399 0.9188046,-0.412377 0.227595,-0.227978 0.347451,-0.53947 0.411345,-0.920359 0.06389,-0.380886 0.07752,-0.844114 0.07752,-1.4335034 V 6.482286 3.2406234 c 0,-0.5893895 -0.01363,-1.0526162 -0.07752,-1.4335043 C 11.236061,1.4262314 11.116201,1.1147409 10.888606,0.88676183 10.661014,0.65878307 10.350113,0.5383839 9.9698014,0.4743841 9.589489,0.410384 9.126574,0.3968694 8.5383629,0.3968694 Z"
     id="path1020"
     inkscape:connector-curvature="0"
     sodipodi:nodetypes="sccsccccccsscccscsccsss" />
  <path
     style="color:#000000;display:inline;overflow:visible;visibility:visible;opacity:0.2;fill:none;fill-opacity:1;fill-rule:nonzero;stroke:#000000;stroke-width:0.52916664;stroke-miterlimit:4;stroke-dasharray:none;stroke-opacity:1;marker:none;enable-background:accumulate"
     d="m 4.1625647,0.39686938 c -2.334731,0 -2.5859449,0.23980511 -2.5745017,2.57925882 V 6.2177027 9.4592771 C 1.576607,11.798731 1.8278337,12.038536 4.1625647,12.038536 h 4.375994 c 2.3347303,0 2.5745013,-0.239779 2.5745013,-2.5792589 V 6.2177027 2.9761282 c 0,-2.33948017 -0.239771,-2.57925882 -2.5745013,-2.57925882 z"
     id="path958"
     inkscape:connector-curvature="0"
     sodipodi:nodetypes="scccssscsss" />
  <path
     style="color:#000000;display:inline;overflow:visible;visibility:visible;fill:url(#linearGradient1024);fill-opacity:1;fill-rule:nonzero;stroke:none;stroke-width:0.26458332;marker:none;enable-background:accumulate"
     d="m 4.1625647,0.39686938 c -2.334731,0 -2.5859449,0.23980511 -2.5745017,2.57925882 V 6.2177027 9.4592771 C 1.576607,11.798731 1.8278337,12.038536 4.1625647,12.038536 h 4.375994 c 2.3347303,0 2.5745013,-0.239779 2.5745013,-2.5792589 V 6.2177027 2.9761282 c 0,-2.33948017 -0.239771,-2.57925882 -2.5745013,-2.57925882 z"
     id="path964"
     inkscape:connector-curvature="0"
     sodipodi:nodetypes="scccssscsss" />
  <g
     style="display:inline;enable-background:new"
     id="g2483"
     transform="matrix(0.04964895,0,0,0.04964895,-5.6071961,-1.2851726)">
    <path
       d="m 186.19721,151.11847 32.29065,13.2801 -2.36495,7.00389 -39.29453,-16.6456 v -7.27677 l 39.29453,-16.6456 2.36495,7.00389 z"
       style="font-style:normal;font-variant:normal;font-weight:normal;font-stretch:normal;font-size:medium;line-height:125%;font-family:Ubuntu;-inkscape-font-specification:'Ubuntu, Normal';text-align:center;letter-spacing:0px;word-spacing:0px;writing-mode:lr-tb;text-anchor:middle;display:inline;fill:url(#linearGradient2734);fill-opacity:1;stroke:none;stroke-width:1px;stroke-linecap:butt;stroke-linejoin:miter;stroke-opacity:1;enable-background:new"
       id="path936-7"
       inkscape:connector-curvature="0" />
    <path
       sodipodi:nodetypes="ccccc"
       d="m 229.80806,195.1429 h -8.64116 l 30.83529,-88.04885 h 8.45924 z"
       style="font-style:normal;font-variant:normal;font-weight:normal;font-stretch:normal;font-size:medium;line-height:125%;font-family:Ubuntu;-inkscape-font-specification:'Ubuntu, Normal';text-align:center;letter-spacing:0px;word-spacing:0px;writing-mode:lr-tb;text-anchor:middle;display:inline;fill:url(#linearGradient2736);fill-opacity:1;stroke:none;stroke-width:1px;stroke-linecap:butt;stroke-linejoin:miter;stroke-opacity:1;enable-background:new"
       id="path938-0"
       inkscape:connector-curvature="0" />
    <path
       sodipodi:nodetypes="ccccccccc"
       d="m 263.1689,137.83838 2.36495,-7.00389 39.29453,16.6456 v 7.27677 l -39.29453,16.6456 -2.36495,-7.00389 32.29064,-13.2801 -12.88352,-5.29857 z"
       style="font-style:normal;font-variant:normal;font-weight:normal;font-stretch:normal;font-size:medium;line-height:125%;font-family:Ubuntu;-inkscape-font-specification:'Ubuntu, Normal';text-align:center;letter-spacing:0px;word-spacing:0px;writing-mode:lr-tb;text-anchor:middle;display:inline;fill:url(#linearGradient2738);fill-opacity:1;stroke:none;stroke-width:1px;stroke-linecap:butt;stroke-linejoin:miter;stroke-opacity:1;enable-background:new"
       id="path940-9"
       inkscape:connector-curvature="0" />
  </g>
  <path
     style="color:#000000;display:inline;overflow:visible;visibility:visible;opacity:0.2;fill:#ffffff;fill-opacity:1;fill-rule:nonzero;stroke:none;stroke-width:0.26458332;marker:none;enable-background:accumulate"
     d="m 1.5878831,6.2177027 v 3.2416625 c -0.011456,2.3394528 0.2397892,2.5791708 2.5745202,2.5791708 h 4.3759596 c 2.3347311,0 2.5745201,-0.239691 2.5745201,-2.5791708 V 6.2177027 Z"
     id="path1006"
     inkscape:connector-curvature="0" />
  <path
     style="color:#000000;display:inline;overflow:visible;visibility:visible;opacity:0.1;fill:#ffffff;fill-opacity:1;fill-rule:nonzero;stroke:none;stroke-width:0.26458332;marker:none;enable-background:accumulate"
     d="M 6.3503831,0.39686938 V 12.038536 h 2.1879798 c 2.3347311,0 2.5745201,-0.239691 2.5745201,-2.5791708 V 6.2177027 2.9760401 c 0,-2.33948018 -0.239789,-2.57917072 -2.5745201,-2.57917072 z"
     id="path1013"
     inkscape:connector-curvature="0" />
  <path
     transform="matrix(0.26458333,0,0,0.26458333,-84.666283,-16.007297)"
     sodipodi:nodetypes="scccssscsss"
     inkscape:connector-curvature="0"
     id="path990"
     d="m 335.73108,62 c -8.82418,0 -9.77365,0.90635 -9.7304,9.74838 V 84 96.25162 c -0.0433,8.84203 0.90622,9.74838 9.7304,9.74838 h 16.53919 c 8.82418,0 9.7304,-0.90625 9.7304,-9.74838 V 84 71.74838 C 362.00067,62.90625 361.09445,62 352.27027,62 Z"
     style="color:#000000;display:inline;overflow:visible;visibility:visible;opacity:0.4;fill:none;fill-opacity:1;fill-rule:nonzero;stroke:url(#linearGradient1004);stroke-width:2;stroke-miterlimit:4;stroke-dasharray:none;stroke-opacity:1;marker:none;enable-background:accumulate"
     clip-path="url(#clipPath994)" />
</svg>
